X:1
T:Summertime
T:Summertime
T:George Gershwin
C:George Gershwin
Z:All Rights Reserved
L:1/4
Q:1/4=120
M:4/4
K:C
V:1 treble nm="MusicXML Part"
%%MIDI program 52
V:1
 e c |"Am"!>(!!>)! e4- | e d/c/ d/e/ c | A2 E2- | E z e c |"Dm"!>(!!>)!!>(!!>)! d/d/- d3 | %6
w: Sum- mer|time|_ and the liv- in is|eas- y|_ Fish are|jump- in' _|
 z c/A/ c/A/ c |"E7" B4- | B2 e c |"Am"!>(!!>)! e/ e e/- e2- | e d/c/ d/e/ c | A2 E2- | E3 E | %13
w: and the cot- ton is|high|_ Well your|dad- dy's rich _|_ and your- mom- ma's good|look- in|_ so|
"C"!>(!!>)! G E/G/ A c |"E7" e/d/- d2 c |"Am"!>(!!>)! A4- | A z :| %17
w: hush lit- tle ba- by|don't _ _ you|cry||

